X: 1
T: Old Dudeen, The
M: 4/4
L: 1/8
R: reel
K: Bmin
|:fe|dBBA FEFA|dcde fgfe|dBBA ~F3 A|BdcA B2:|
Bc|:d2 Bc dcde|fbbf afef|dBBc dcde|fbaf e2 de|
fB~B2 dcde|fbbf a2 fa|bfbf abaf|bf~f2 eafe:|
